suite-common/icons/assets/icons/dashboard.svg

<svg xmlns="http://www.w3.org/2000/svg" viewBox="0 0 16 16">
  <path fill-rule="evenodd" d="M2.767 2.029c-.281.066-.538.28-.671.558l-.083.173v7.493l.07.147c.146.307.427.524.755.584.087.016.438.029.78.029s.622.006.622.013-.133.544-.295 1.193c-.221.886-.29 1.204-.278 1.273a.67.67 0 0 0 .211.369c.338.297 1.007.08 1.228-.398.034-.074.192-.655.351-1.292l.289-1.158h4.508l.289 1.158c.159.637.317 1.218.351 1.292.174.376.648.612 1.026.511a.63.63 0 0 0 .4-.431c.031-.14.025-.169-.264-1.323-.163-.648-.296-1.185-.296-1.193 0-.007.28-.014.622-.014s.693-.013.78-.029c.328-.06.609-.277.755-.584l.07-.147V2.76l-.076-.163a1.13 1.13 0 0 0-.511-.509l-.16-.075-5.187-.004c-2.958-.002-5.229.006-5.286.02m9.98 4.478V9.76H3.253V3.253h9.494zm-2.627-1.95a.8.8 0 0 0-.192.14c-.173.182-.168.132-.168 1.814 0 1.493.001 1.528.056 1.641a.65.65 0 0 0 .64.344.65.65 0 0 0 .53-.505c.02-.098.027-.597.022-1.581-.008-1.415-.009-1.438-.066-1.543a.75.75 0 0 0-.334-.319.7.7 0 0 0-.488.009m-2.267.961a.62.62 0 0 0-.452.433c-.06.204-.06 1.894 0 2.098.095.32.413.508.731.431a.6.6 0 0 0 .411-.323l.07-.141V5.984l-.069-.14a.58.58 0 0 0-.374-.313.5.5 0 0 0-.317-.013M5.387 6.549a.76.76 0 0 0-.328.318c-.05.093-.058.161-.067.536-.013.511.016.684.138.844a.622.622 0 0 0 1.061-.107c.059-.119.062-.157.062-.62 0-.35-.01-.523-.036-.597a.75.75 0 0 0-.337-.367.73.73 0 0 0-.493-.007"/>
</svg>

<svg xmlns="http://www.w3.org/2000/svg" viewBox="0 0 16 16"><path d="M2.767 2.029 C 2.486 2.095,2.229 2.309,2.096 2.587 L 2.013 2.760 2.013 6.507 L 2.013 10.253 2.083 10.400 C 2.229 10.707,2.510 10.924,2.838 10.984 C 2.925 11.000,3.276 11.013,3.618 11.013 C 3.960 11.013,4.240 11.019,4.240 11.026 C 4.240 11.033,4.107 11.570,3.945 12.219 C 3.724 13.105,3.655 13.423,3.667 13.492 C 3.693 13.630,3.772 13.768,3.878 13.861 C 4.216 14.158,4.885 13.941,5.106 13.463 C 5.140 13.389,5.298 12.808,5.457 12.171 L 5.746 11.013 8.000 11.013 L 10.254 11.013 10.543 12.171 C 10.702 12.808,10.860 13.389,10.894 13.463 C 11.068 13.839,11.542 14.075,11.920 13.974 C 12.097 13.926,12.278 13.731,12.320 13.543 C 12.351 13.403,12.345 13.374,12.056 12.220 C 11.893 11.572,11.760 11.035,11.760 11.027 C 11.760 11.020,12.040 11.013,12.382 11.013 C 12.724 11.013,13.075 11.000,13.162 10.984 C 13.490 10.924,13.771 10.707,13.917 10.400 L 13.987 10.253 13.987 6.507 L 13.987 2.760 13.911 2.597 C 13.816 2.391,13.610 2.186,13.400 2.088 L 13.240 2.013 8.053 2.009 C 5.095 2.007,2.824 2.015,2.767 2.029 M12.747 6.507 L 12.747 9.760 8.000 9.760 L 3.253 9.760 3.253 6.507 L 3.253 3.253 8.000 3.253 L 12.747 3.253 12.747 6.507 M10.120 4.557 C 10.061 4.585,9.975 4.647,9.928 4.697 C 9.755 4.879,9.760 4.829,9.760 6.511 C 9.760 8.004,9.761 8.039,9.816 8.152 C 9.925 8.377,10.214 8.533,10.456 8.496 C 10.716 8.457,10.932 8.251,10.986 7.991 C 11.006 7.893,11.013 7.394,11.008 6.410 C 11.000 4.995,10.999 4.972,10.942 4.867 C 10.868 4.729,10.733 4.600,10.608 4.548 C 10.474 4.492,10.251 4.496,10.120 4.557 M7.853 5.518 C 7.635 5.572,7.466 5.733,7.401 5.951 C 7.341 6.155,7.341 7.845,7.401 8.049 C 7.496 8.369,7.814 8.557,8.132 8.480 C 8.319 8.435,8.459 8.325,8.543 8.157 L 8.613 8.016 8.613 7.000 L 8.613 5.984 8.544 5.844 C 8.463 5.682,8.346 5.584,8.170 5.531 C 8.035 5.490,7.978 5.488,7.853 5.518 M5.387 6.549 C 5.265 6.602,5.130 6.733,5.059 6.867 C 5.009 6.960,5.001 7.028,4.992 7.403 C 4.979 7.914,5.008 8.087,5.130 8.247 C 5.416 8.622,5.982 8.565,6.191 8.140 C 6.250 8.021,6.253 7.983,6.253 7.520 C 6.253 7.170,6.243 6.997,6.217 6.923 C 6.169 6.787,6.013 6.617,5.880 6.556 C 5.750 6.497,5.515 6.494,5.387 6.549 " stroke="none" fill-rule="evenodd" fill="black"></path></svg>
